X:1
T:The knell of tyrant laws I hear
T:John Wall Callcott (1766-1821)
T:From Vol. 3 of the collection of the Composer's "Glees, Canons and Catches" compiled by William Horsley, 1824
T:The knell of tyrant laws I hear
T:Catch composed for Nelson's victory at the Battle of the Nile
C:John Wall Callcott (1766-1821)
Z:From Vol. 3 of the collection of the
Z:Composer's "Glees, Canons and Catches"
Z:compiled by William Horsley, 1824
%%score [ 1 2 3 ] { ( 4 5 ) | 6 }
L:1/8
M:4/4
K:Bb
V:1 treble nm="P1"
V:2 treble nm="P2"
V:3 treble nm="P3"
V:4 treble nm="Piano" snm="Pno."
V:5 treble 
V:6 bass 
V:1
 F2 | B4 B4 | B4 (D3 E) | F4 F4 | B4 z2 B2 | A2 F2 G2 A2 | B2 G2 z2 B2 | c4 C4 | F4 z2 F2 | B4 F4 | %10
w: The|knell of|ty- rant _|laws I|hear, Bri-|tan- nia's flag tri-|um- phant, tri-|um- phant|rear. Bri-|tan- nia's|
 B4 F4 | B4 B4 | E2 E2 F2 G2 | F4 F4 | B4 z4 || F2 | B4 B4 | B4 (D3 E) | F4 F4 | B4 z2 B2 | %20
w: flag tri-|um- phant|rear, tri- um- phant|rear, O|rear.|The|knell of|ty- rant _|laws I|hear, Bri-|
 A2 F2 G2 A2 | B2 G2 z2 B2 | c4 C4 | F4 z2 F2 | B4 F4 | B4 F4 | B4 B4 | E2 E2 F2 G2 | F4 F4 | %29
w: tan- nia's flag tri-|um- phant, tri-|um- phant|rear. Bri-|tan- nia's|flag tri-|um- phant|rear, tri- um- phant|rear, O|
 B4 z4 || F2 | B4 B4 | B4 (D3 E) | F4 F4 | B4 z2 B2 | A2 F2 G2 A2 | B2 G2 z2 B2 | c4 C4 | %38
w: rear.|The|knell of|ty- rant _|laws I|hear, Bri-|tan- nia's flag tri-|um- phant, tri-|um- phant|
 F4 z2 F2 | B4 F4 | B4 F4 | B4 B4 | E2 E2 F2 G2 | F4 F4 | B4 z4 || F2 | B4 B4 | B4 (D3 E) | F4 F4 | %49
w: rear. Bri-|tan- nia's|flag tri-|um- phant|rear, tri- um- phant|rear, O|rear.|The|knell of|ty- rant _|laws I|
 B4 z2 B2 | A2 F2 G2 A2 | B2 G2 z2 B2 | c4 C4 | F4 z4 | d2 z2 z4 | z8 | e2 z2 z4 | z4 z2 F2 | %58
w: hear, Bri-|tan- nia's flag tri-|um- phant, tri-|um- phant|rear.|knell||knell|Bri-|
 B4 F4 | B4 F4 | B4 B4 | E2 E2 F2 G2 | F4 F4 | B4 |] %64
w: tan- nia's|flag tri-|um- phant|rear, tri- um- phant|rear, O|rear.|
V:2
 z2 | z8 | z8 | z8 | z8 | z8 | z8 | z8 | z8 | z8 | z8 | z8 | z8 | z8 | z8 || z2 | d4 d3 d | d4 f4 | %18
w: ||||||||||||||||Son of the|Nile thy|
 c6 de | d4 z2 d2 | c4 f4 | d6 g2 | f4 =e4 | f4 z2 A2 | BABc d2 A2 | BABc d2 A2 | BABc dBcd | %27
w: dar- ing _|hand has|crushed the|foe on|E- gypt's|strand. has|crushed the foe on E- gypt's|strand, _ on _ E- gypt's|strand, has crushed the foe on E- gypt's|
 e2 e2 d2 c2 | B4 A4 | B4 z4 || z2 | d4 d3 d | d4 f4 | c6 de | d4 z2 d2 | c4 f4 | d6 g2 | f4 =e4 | %38
w: strand, the foe on|E- gypt's|strand.||Son of the|Nile thy|dar- ing _|hand has|crushed the|foe on|E- gypt's|
 f4 z2 A2 | BABc d2 A2 | BABc d2 A2 | BABc dBcd | e2 e2 d2 c2 | B4 A4 | B4 z4 || z2 | d4 d3 d | %47
w: strand. has|crushed the foe on E- gypt's|strand, _ on _ E- gypt's|strand, has crushed the foe on E- gypt's|strand, the foe on|E- gypt's|strand.||Son of the|
 d4 f4 | c6 de | d4 z2 d2 | c4 f4 | d6 g2 | f4 =e4 | f4 z4 | z2 B2 F2 _A2 | G2 z2 z4 | %56
w: Nile thy|dar- ing _|hand has|crushed the|foe on|E- gypt's|strand.|Son of the|Nile|
 z2 c2 F2 B2 | A4 z2 A2 | BABc d2 A2 | BABc d2 A2 | BABc dBcd | e2 e2 d2 c2 | B4 A4 | B4 |] %64
w: Son of the|Nile has|crushed the foe on E- gypt's|strand, _ on _ E- gypt's|strand, has crushed the foe on E- gypt's|strand, the foe on|E- gypt's|strand.|
V:3
 z2 | z8 | z8 | z8 | z8 | z8 | z8 | z8 | z8 | z8 | z8 | z8 | z8 | z8 | z8 || z2 | z8 | z8 | z8 | %19
w: |||||||||||||||||||
 z8 | z8 | z8 | z8 | z8 | z8 | z8 | z8 | z8 | z8 | z8 || z2 | z2 B2 B2 B2 | B4 B4 | B4 A4 | B4 z4 | %35
w: ||||||||||||Now safe from|the as-|saults of|war,|
 z2 A2 B2 c2 | d2 B2 B2 B2 | A4 G4 | F2 z2 z2 c2 | dcde f2 c2 | dcde f2 c2 | dcde fdef | %42
w: Let's drink a|health to ev'- ry|Bri- tish|tar, Let's|drink a health to ev'- ry|Bri- * tish _ tar, let's|drink a health, let's drink a health to|
 g2 g2 f2 e2 | d4 c4 | B4 z4 || z2 | z2 B2 B2 B2 | B4 B4 | B4 A4 | B4 z4 | z2 A2 B2 c2 | %51
w: ev'- ry, ev'- ry|Bri- tish|tar.||Now safe from|the as-|saults of|war,|Let's drink a|
 d2 B2 B2 B2 | A4 G4 | F2 z2 z4 | z8 | z2 G2 c>B c>d | z8 | z4 z2 c2 | dcde f2 c2 | dcde f2 c2 | %60
w: health to ev'- ry|Bri- tish|tar,||Let's drink a health to||let's|drink a health to ev'- ry|Bri- * tish _ tar, let's|
 dcde fdef | g2 g2 f2 e2 | d4 c4 | B4 |] %64
w: drink a health, let's drink a health to|ev'- ry, ev'- ry|Bri- tish|tar.|
V:4
"^Accompaniment added by William Horsley (1774-1858)" F2 | d4 z4 | d4 f4 | c6 (de) | d4 z2 d2 | %5
 c4 f4 | d6 g2 | f4 =e4 | f4 z2 c2 | dcde f2 c2 | (dcde) f2 c2 | (dcde) (fdef) | g2 (g2 f2 e2 | %13
 d4) c4 | B4 z4 || F2 | d4 z4 | d4 f4 | c6 (de) | d4 z2 d2 | c4 f4 | d6 g2 | f4 =e4 | f4 z2 c2 | %24
 dcde f2 c2 | (dcde) f2 c2 | (dcde) (fdef) | g2 (g2 f2 e2 | d4) c4 | B4 z4 || F2 | d4 z4 | d4 f4 | %33
 c6 (de) | d4 z2 d2 | c4 f4 | d6 g2 | f4 =e4 | f4 z2 c2 | dcde f2 c2 | (dcde) f2 c2 | %41
 (dcde) (fdef) | g2 (g2 f2 e2 | d4) c4 | B4 z4 || F2 | d4 z4 | d4 f4 | c6 (de) | d4 z2 d2 | c4 f4 | %51
 d6 g2 | f4 =e4 | f4 z4 | z2 B2 F2 _A2 | G2 z2 z4 | z2 c2 F2 B2 | z4 z2 c2 | dcde f2 c2 | %59
 (dcde) f2 c2 | (dcde) (fdef) | g2 (g2 f2 e2 | d4) c4 | B4 |] %64
V:5
 z2 | B4 B4 | B4 B4- | B4 A4 | B4 z2 B2 | A2 A2 B2 c2 | d2 B2 B2 B2 | A4 G4 | F4 z2 A2 | %9
 BABc d2 A2 | (BABc) d2 A2 | (BABc) (dBcd) | e2 e2 d2 c2 | x8 | x8 || z2 | B4 B4 | B4 B4- | B4 A4 | %19
 B4 z2 B2 | A2 A2 B2 c2 | d2 B2 B2 B2 | A4 G4 | F4 z2 A2 | BABc d2 A2 | (BABc) d2 A2 | %26
 (BABc) (dBcd) | e2 e2 d2 c2 | x8 | x8 || z2 | B4 B4 | B4 B4- | B4 A4 | B4 z2 B2 | A2 A2 B2 c2 | %36
 d2 B2 B2 B2 | A4 G4 | F4 z2 A2 | BABc d2 A2 | (BABc) d2 A2 | (BABc) (dBcd) | e2 e2 d2 c2 | x8 | %44
 x8 || z2 | B4 B4 | B4 B4- | B4 A4 | B4 z2 B2 | A2 A2 B2 c2 | d2 B2 B2 B2 | A4 G4 | F4 x4 | x8 | %55
 x8 | x8 | A4 z2 A2 | BABc d2 A2 | (BABc) d2 A2 | (BABc) (dBcd) | e2 e2 d2 c2 | x8 | x4 |] %64
V:6
 z2 | z2 B,2 B,2 B,2 | B,4 D,3 E, | F,4 F,4 | B,4 z4 | z2 F,2 G,2 A,2 | B,2 G,2 z2 B,2 | C4 C,4 | %8
 F,2 F,2 z2 F,2 | B,4 F,4 | B,4 F,4 | B,4 B,4 | E,2 E,2 F,2 G,2 | F,4 F,4 | B,4 z4 || z2 | %16
 z2 B,2 B,2 B,2 | B,4 D,3 E, | F,4 F,4 | B,4 z4 | z2 F,2 G,2 A,2 | B,2 G,2 z2 B,2 | C4 C,4 | %23
 F,2 F,2 z2 F,2 | B,4 F,4 | B,4 F,4 | B,4 B,4 | E,2 E,2 F,2 G,2 | F,4 F,4 | B,4 z4 || z2 | %31
 z2 B,2 B,2 B,2 | B,4 D,3 E, | F,4 F,4 | B,4 z4 | z2 F,2 G,2 A,2 | B,2 G,2 z2 B,2 | C4 C,4 | %38
 F,2 F,2 z2 F,2 | B,4 F,4 | B,4 F,4 | B,4 B,4 | E,2 E,2 F,2 G,2 | F,4 F,4 | B,4 z4 || z2 | %46
 z2 B,2 B,2 B,2 | B,4 D,3 E, | F,4 F,4 | B,4 z4 | z2 F,2 G,2 A,2 | B,2 G,2 z2 B,2 | C4 C,4 | %53
 F,2 F,2 B,>A, B,>C | D2 z2 z4 | z2 G,2 C>B, C>D | E2 z2 z4 | z4 z2 F,2 | B,4 F,4 | B,4 F,4 | %60
 B,4 B,4 | E,2 E,2 F,2 G,2 | F,4 F,4 | B,4 |] %64

